packages/core/src/svgs/xpnet.svg

<svg width="24" height="24" viewBox="0 0 24 24" fill="none" xmlns="http://www.w3.org/2000/svg">
<g clip-path="url(#clip0_31_20990)">
<path d="M0 0H24V24H0V0Z" fill="#E22440"/>
<path d="M14.4428 18.5269L12.9685 17.0355C12.8706 16.9351 12.7537 16.8553 12.6245 16.8007C12.4953 16.7462 12.3565 16.7182 12.2163 16.7182C12.0761 16.7182 11.9373 16.7462 11.8082 16.8007C11.679 16.8553 11.562 16.9351 11.4642 17.0355L9.98991 18.5269C9.8878 18.6307 9.76606 18.7132 9.63178 18.7694C9.4975 18.8257 9.35336 18.8547 9.20776 18.8547C9.06217 18.8547 8.91803 18.8257 8.78375 18.7694C8.64946 18.7132 8.52772 18.6307 8.42562 18.5269L7.71419 17.8069L9.96848 15.5184C10.261 15.2193 10.6104 14.9817 10.996 14.8194C11.3817 14.6572 11.7958 14.5736 12.2142 14.5736C12.6326 14.5736 13.0467 14.6572 13.4324 14.8194C13.818 14.9817 14.1674 15.2193 14.4599 15.5184L16.7142 17.8069L16.0028 18.5269C15.901 18.6306 15.7797 18.713 15.6457 18.7692C15.5118 18.8254 15.368 18.8543 15.2228 18.8543C15.0775 18.8543 14.9337 18.8254 14.7998 18.7692C14.6659 18.713 14.5445 18.6306 14.4428 18.5269ZM6.19276 16.2855L5.47276 15.5741C5.36897 15.472 5.28654 15.3502 5.23027 15.216C5.174 15.0817 5.14502 14.9375 5.14502 14.7919C5.14502 14.6463 5.174 14.5022 5.23027 14.3679C5.28654 14.2336 5.36897 14.1119 5.47276 14.0098L6.96419 12.5398C7.39276 12.1198 7.39276 11.4469 6.96419 11.0312L5.47276 9.56123C5.36897 9.45912 5.28654 9.33738 5.23027 9.2031C5.174 9.06882 5.14502 8.92468 5.14502 8.77908C5.14502 8.63349 5.174 8.48935 5.23027 8.35507C5.28654 8.22078 5.36897 8.09904 5.47276 7.99694L6.19276 7.28551L8.48562 9.5398C8.78458 9.83198 9.02213 10.181 9.18431 10.5662C9.34649 10.9515 9.43004 11.3653 9.43004 11.7834C9.43004 12.2014 9.34649 12.6152 9.18431 13.0005C9.02213 13.3858 8.78458 13.7348 8.48562 14.0269L6.19276 16.2855ZM11.7856 9.42837C10.9713 9.42837 10.157 9.11551 9.53991 8.48551L7.28562 6.19265L7.99705 5.47265C8.09915 5.36886 8.22089 5.28643 8.35517 5.23016C8.48946 5.17389 8.6336 5.14491 8.77919 5.14491C8.92479 5.14491 9.06893 5.17389 9.20321 5.23016C9.33749 5.28643 9.45923 5.36886 9.56133 5.47265L11.0313 6.96837C11.447 7.38837 12.1242 7.38837 12.5399 6.96837L14.0099 5.46837C14.112 5.36458 14.2337 5.28214 14.368 5.22587C14.5023 5.1696 14.6465 5.14062 14.792 5.14062C14.9376 5.14062 15.0818 5.1696 15.2161 5.22587C15.3503 5.28214 15.4721 5.36458 15.5742 5.46837L16.2856 6.19694L14.0313 8.48551C13.7375 8.78272 13.3878 9.01899 13.0025 9.18079C12.6171 9.34259 12.2036 9.42672 11.7856 9.42837ZM17.807 16.2855L15.5142 14.0312C15.2151 13.7387 14.9775 13.3893 14.8152 13.0037C14.653 12.618 14.5694 12.2039 14.5694 11.7855C14.5694 11.3671 14.653 10.953 14.8152 10.5673C14.9775 10.1817 15.2151 9.83235 15.5142 9.5398L17.807 7.28551L18.527 7.99694C18.6308 8.09904 18.7133 8.22078 18.7695 8.35507C18.8258 8.48935 18.8548 8.63349 18.8548 8.77908C18.8548 8.92468 18.8258 9.06882 18.7695 9.2031C18.7133 9.33738 18.6308 9.45912 18.527 9.56123L17.0356 11.0355C16.607 11.4512 16.607 12.1284 17.0356 12.5398L18.527 14.0141C18.6308 14.1162 18.7133 14.2379 18.7695 14.3722C18.8258 14.5065 18.8548 14.6506 18.8548 14.7962C18.8548 14.9418 18.8258 15.086 18.7695 15.2202C18.7133 15.3545 18.6308 15.4763 18.527 15.5784L17.807 16.2855Z" fill="white"/>
</g>
<defs>
<clipPath id="clip0_31_20990">
<rect width="24" height="24" fill="white"/>
</clipPath>
</defs>
</svg>

<svg xmlns="http://www.w3.org/2000/svg" width="24" height="24" fill="none" viewBox="0 0 24 24"><g clip-path="url(#a)"><path fill="#E22440" d="M0 0h24v24H0z"/><path fill="#fff" d="m14.443 18.527-1.474-1.492a1.053 1.053 0 0 0-1.505 0L9.99 18.528a1.096 1.096 0 0 1-1.564 0l-.712-.72 2.254-2.289a3.14 3.14 0 0 1 4.492 0l2.254 2.289-.711.72a1.093 1.093 0 0 1-1.56 0m-8.25-2.242-.72-.71a1.1 1.1 0 0 1 0-1.565l1.491-1.47a1.046 1.046 0 0 0 0-1.509l-1.491-1.47a1.097 1.097 0 0 1 0-1.564l.72-.711L8.486 9.54a3.14 3.14 0 0 1 0 4.487zm5.593-6.857a3.13 3.13 0 0 1-2.246-.942L7.286 6.193l.711-.72a1.097 1.097 0 0 1 1.564 0l1.47 1.495a1.06 1.06 0 0 0 1.509 0l1.47-1.5a1.097 1.097 0 0 1 1.564 0l.712.729-2.255 2.289a3.18 3.18 0 0 1-2.245.942m6.021 6.857-2.293-2.254a3.14 3.14 0 0 1 0-4.491l2.293-2.254.72.71a1.096 1.096 0 0 1 0 1.565l-1.491 1.475a1.04 1.04 0 0 0 0 1.504l1.491 1.474a1.096 1.096 0 0 1 0 1.564z"/></g><defs><clipPath id="a"><path fill="#fff" d="M0 0h24v24H0z"/></clipPath></defs></svg>
